X:1
T:Title
%%score ( 1 2 ) { 3 | 4 }
L:1/8
Q:1/4=140
M:3/4
K:F
V:1 treble nm="Grand Piano, Soprano"
V:2 treble 
V:3 treble nm="Choir Pad, Grateful Submission, 1902"
V:4 bass 
V:1
 C2 [FA]4 | [FB]2 [FA]4 | [Fc]2 [Ec]4 | [EG]2 [FA]4 | [Fc]2 [Fc]4 | [_EF]2 [DF]4 | [DG]2 F4- | %7
w: By~Abraham~Bowman~Kolb,~1902 *|||||||
 F2 E4 | FA [Fc]4 | [Fd]2 [Fc]4 | [FA]2 [Af]4 | [Bf]2 [Af]4 | [Fd]2 [Fc]4 | F2 [FA]4 | %14
w: |||||||
 [CG]2 [CF]4- | [CF]6- | [CF]2 [Fc]3 [Fc] | [Fc]2 [Ec]4 | [Ec]2 [_Ec]4 | [_EF]2 [DF]4 | %20
w: ||||||
 [Fd]2 [Fc]4 | [FA]2 c2 B2 | [FA]2 [EG]4- | [EG]6 | [EG]2 [FA]4 | [FA]2 [EB]4 | [EB]2 [Fc]4 | %27
w: |||||||
 [Fc]2 [Fd]4 | [Fd]2 [Fc]2 F2 | [FB]2 [FA]4 | [CG]2 [CF]4- | [CF]6- | [CF]2 z2 z2 |] %33
w: ||||||
V:2
 x6 | x6 | x6 | x6 | x6 | x6 | z2 C4- | C6 | x6 | x6 | x6 | x6 | x6 | x6 | x6 | x6 | x6 | x6 | x6 | %19
 x6 | x6 | z2 G4 | x6 | x6 | x6 | x6 | x6 | x6 | x6 | x6 | x6 | x6 | x6 |] %33
V:3
 A,2 C4 | D2 C4 | A,2 G,4 | C2 C4 | A,2 C4 | C2[K:bass] B,4 | B,2 A,4- | A,2 G,4 | A,C A,4 | %9
 B,2 A,4 | C2 C4 | D2 C4 | B,2 C4 | D2 C4 | B,2 A,4- | A,6- | A,2 A,3 A, | A,2 G,4 | B,2 A,4 | %19
 A,2 B,4 | B,2 A,4 | C2 C4 | C2 C4- | C6 | C2 C4 | C2 C4 | C2 C4 | C2[K:bass] B,4 | B,2 A,4 | %29
 D2 C4 | B,2 A,4- | A,6- | A,2 z2 z2 |] %33
V:4
 F,2 F,4 | F,2 F,4 | F,2 C,4 | C,2 F,4 | F,2 A,4 | A,2 z2 z2 | B,,2 C,4- | C,6 | F,2 F,4 | %9
 F,2 F,4 | F,2 F,4 | F,2 F,4 | z2 A,4 | B,2 z2 z2 | C,2 F,4- | F,6- | F,2 F,3 F, | F,2 C,4 | %18
 C,2 F,4 | F,2 B,,4 | B,,2 F,4 | F,2 E,4 | F,2 C,4- | C,6 | C,2 F,4 | F,2 G,4 | G,2 A,4 | %27
 A,2 z2 z2 | B,,2 C,2 D,2 | B,,2 C,4 | C,2 F,,4- | F,,6- | F,,2 z2 z2 |] %33

